azure-icons/general-17-Home.svg

<svg xmlns="http://www.w3.org/2000/svg" width="18" height="18"><defs><linearGradient id="a" x1="9" y1="17.66" x2="9" y2=".34" gradientUnits="userSpaceOnUse"><stop offset="0" stop-color="#0078d4"/><stop offset=".17" stop-color="#1c84dc"/><stop offset=".38" stop-color="#3990e4"/><stop offset=".59" stop-color="#4d99ea"/><stop offset=".8" stop-color="#5a9eee"/><stop offset="1" stop-color="#5ea0ef"/></linearGradient></defs><path d="M17.8 8.29L9.41.5a.61.61 0 00-.82 0L.2 8.29a.62.62 0 00.47 1.06h1.72a.3.3 0 01.3.3v7.4a.61.61 0 00.61.61h11.4a.61.61 0 00.61-.61v-7.4a.3.3 0 01.3-.3h1.72a.62.62 0 00.47-1.06z" fill="url(#a)"/><path d="M7.07 12.4h3.86a.36.36 0 01.32.38v4.88h-4.5v-4.88a.36.36 0 01.32-.38z" fill="#e6e6e6"/><path d="M.67 9.35h.53l7.39-6.86a.61.61 0 01.82 0l7.39 6.86h.53a.62.62 0 00.47-1.06L9.41.5a.61.61 0 00-.82 0L.2 8.29a.62.62 0 00.47 1.06z" fill="#005ba1"/></svg>

<svg id="a7cb8cd6-2817-407b-b05e-da6a1a07986d"  xmlns="http://www.w3.org/2000/svg"  width="18" height="18" viewBox="0 0 18 18">
  <defs>
    <linearGradient id="f1d60ecc-f549-47b8-819a-b9b4b44e4c30" x1="9" y1="17.66" x2="9" y2="0.34" gradientUnits="userSpaceOnUse">
      <stop offset="0" stop-color="#0078d4"/>
      <stop offset="0.17" stop-color="#1c84dc"/>
      <stop offset="0.38" stop-color="#3990e4"/>
      <stop offset="0.59" stop-color="#4d99ea"/>
      <stop offset="0.8" stop-color="#5a9eee"/>
      <stop offset="1" stop-color="#5ea0ef"/>
    </linearGradient>
  </defs>
  <title>Icon-general-17</title>
  <g>
    <path d="M17.8,8.29,9.41.5a.61.61,0,0,0-.82,0L.2,8.29A.62.62,0,0,0,.67,9.35H2.39a.3.3,0,0,1,.3.3v7.4a.61.61,0,0,0,.61.61H14.7a.61.61,0,0,0,.61-.61V9.65a.3.3,0,0,1,.3-.3h1.72A.62.62,0,0,0,17.8,8.29Z" fill="url(#f1d60ecc-f549-47b8-819a-b9b4b44e4c30)"/>
    <path id="b814d994-7069-4bdb-859e-2df17e42ed63" d="M7.07,12.4h3.86a.36.36,0,0,1,.32.38v4.88H6.75V12.78A.36.36,0,0,1,7.07,12.4Z" fill="#e6e6e6"/>
    <path d="M.67,9.35H1.2L8.59,2.49a.61.61,0,0,1,.82,0L16.8,9.35h.53a.62.62,0,0,0,.47-1.06L9.41.5a.61.61,0,0,0-.82,0L.2,8.29A.62.62,0,0,0,.67,9.35Z" fill="#005ba1"/>
  </g>
</svg>
